!!!!SEGMENT: pl-sa--269-a-vii-29--003_myslivecek-josef--trio-allegro.krn
!!!cenid: 17xx:634
!!!COM: Mysliveček, Josef
!!!COM-rismid: pe30002301
!!!CDT: 1737/03/09-1781/02/04
!!!CNT: Czech
!!!OPR: Trio
!!!OTL: Allegro
!!!OMV: 003
!!!PDT:
!!!AGN: Secular
!!!SMS-siglum: PL-SA
!!!SMS-shelfmark: 269/A VII 29
!!!SMS-shelfwork: 001-003 M
!!!SMS-variant:
!!!SMS-altvar:
!!!NIFC-rismid: 1001077276
!!!URL-scan: http://bc.bdsandomierz.pl/dlibra/publication/1752/edition/1720/content
!!!ONB-nifc: UWAGA: części Tria: Larghetto, Allegro (C), Allegro (3/8). Uwaga na nazwy cz. 002 i 003.
!!!AIN: 1 cello 2 flt
!!!key:
**kern	**dynam	**kern	**kern	**dynam
*part3	*part3	*part2	*part1	*part1
*staff3	*	*staff2	*staff1	*
*group2	*	*group1	*group1	*
*Icello	*	*Iflt	*Iflt	*
*I"Violoncello.	*	*I"Flauto. Secundo.	*I"Flauto. Primo.	*
*I'vc	*	*I'fl 2	*I'fl 1	*
*clefF4	*	*clefG2	*clefG2	*
*k[f#]	*	*k[f#]	*k[f#]	*
*G:	*	*G:	*G:	*
*M3/8	*	*M3/8	*M3/8	*
*>[AABB]	*	*>[AABB]	*>[AABB]	*
=1	=1	=1	=1	=1
*>A	*	*>A	*>A	*
!	!	!LO:TX:a:t=Allo	!	!
!	!	!LO:TX:a:t=allo.	!	!
!	!	!LO:TX:a:t=P:problem=głos nazwany omyłkowo "Violino Secundo."	!LO:TX:a:t=allo.	!
8G\L	.	16b`/LL	16dd`\LL	.
.	.	(32g/L	(32b\L	.
.	.	32a/JJJ)	32cc\JJJ)	.
8B\	.	16b`/LL	16dd'\LL	.
.	.	16b`/	16dd'\	.
8d\J	.	16b`/	16dd'\	.
.	.	16b`/JJ	16dd'\JJ	.
=2	=2	=2	=2	=2
!LO:TX:a:t=P:problem=chorągiewki 8\left&colon; global	!	!	!	!
8G\	.	16b\LL	16dd\LL	.
.	.	32b\L	32gg\L	.
.	.	32cc\JJJ	32aa\JJJ	.
.	.	8qee/	8qccc/	.
8r	.	16dd\LL	16bb\LL	.
.	.	32cc\L	32aa\L	.
.	.	32b\JJJ	32gg\JJJ	.
.	.	8qee/	8qgg/	.
8r	.	16dd\LL	16ff#\LL	.
.	.	32cc\L	32ee\L	.
.	.	32b\JJJ	32dd\JJJ	.
=3	=3	=3	=3	=3
8D\L	.	16a`/LL	16cc`\LL	.
.	.	(32f#/L	(32a\L	.
.	.	32g/JJJ)	32b\JJJ)	.
8F#\	.	16a`/LL	16cc'\LL	.
.	.	16a`/	16cc'\	.
8A\J	.	16a`/	16cc'\	.
.	.	16a`/JJ	16cc'\JJ	.
=4	=4	=4	=4	=4
8D\	.	16a/LL	16cc\LL	.
.	.	32a/L	32ff#\L	.
.	.	32b/JJJ	32gg\JJJ	.
.	.	8qdd/	8qbb/	.
8r	.	16cc\LL	16aa\LL	.
.	.	32b\L	32gg\L	.
.	.	32a\JJJ	32ff#\JJJ	.
.	.	8qdd/	8qff#/	.
8r	.	16cc\LL	16ee\LL	.
.	.	32b\L	32dd\L	.
.	.	32a\JJJ	32cc\JJJ	.
=5	=5	=5	=5	=5
8G\	.	8g/	(32b\LLL	.
.	.	.	32gg\	.
.	.	.	32ff#\	.
.	.	.	32gg\JJJ)	.
8r	.	8r	32aa\LLL	.
.	.	.	(32gg\	.
.	.	.	32ff#\	.
.	.	.	32gg\JJJ)	.
8D\	.	(16ff#\LL	16aa\LL	.
.	.	32gg\L	(32ddd\L	.
.	.	32aa\JJJ)	32ccc\JJJ)	.
!	!	!LO:LB:g=original	!	!
=6	=6	=6	=6	=6
!	!	!LO:TX:a:t=P:problem=chorągiewki 8\left&colon; global	!	!
8G\	.	8gg\	(32bb\LLL	.
.	.	.	32gg\	.
.	.	.	32ff#\	.
.	.	.	32gg\JJJ)	.
8r	.	8r	(32aa\LLL	.
.	.	.	32gg\	.
.	.	.	32ff#\	.
.	.	.	32gg\JJJ)	.
8D\	.	(16ff#\LL	(16aa\LL	.
.	.	32gg\L	32bb\L	.
.	.	32aa\JJJ)	32ccc\JJJ)	.
!	!	!	!LO:LB:g=original	!
=7	=7	=7	=7	=7
8G\L	.	(32gg\LLL	(32bb\LLL	.
.	.	32ff#\	32aa\	.
.	.	32ee\	32gg\	.
.	.	32dd\JJJ)	32ff#\JJJ)	.
8G\	.	(32ee\LLL	(32gg\LLL	.
.	.	32dd\	32ff#\	.
.	.	32cc\	32ee\	.
.	.	32b\JJJ)	32dd\JJJ)	.
8G\J	.	16.a/LL	16.cc\LL	.
.	.	32g/JJk	32b\JJk	.
=8	=8	=8	=8	=8
8D`\L	.	8g/L	8b/L	.
(32D\LL	.	8f#/J	8a/J	.
32E\	.	.	.	.
32F#\	.	.	.	.
32G\JJJ)	.	.	.	.
(32A\LLL	.	8r	8r	.
32G\	.	.	.	.
32F#\	.	.	.	.
32E\JJJ)	.	.	.	.
!LO:LB:g=original	!	!	!	!
=9	=9	=9	=9	=9
4D/	.	16r	16r	.
.	.	8ff#\L	8aa\L	.
.	.	8ff#\	8aa\	.
8r	.	.	.	.
.	.	16ff#\Jk	16aa#X\Jk	.
=10	=10	=10	=10	=10
8r	.	(16gg\LL	(16bb\LL	.
.	.	16dd#X\JJ)	16ff#\JJ)	.
16r	.	(16ee\LL	(16gg\LL	.
16A\LL	.	16b\JJ)	16dd#X\JJ	.
16G\	.	8b\	8ee\)	.
16E\JJ	.	.	.	.
=11	=11	=11	=11	=11
4C#X/	.	16r	16r	.
.	.	8ee\L	8gg\L	.
.	.	8ee\	8gg\	.
8r	.	.	.	.
.	.	16ee\Jk	16gg#X\Jk	.
=12	=12	=12	=12	=12
8r	.	(16ff#\LL	(16aa\LL	.
.	.	16cc#X\JJ)	16ee\JJ)	.
16r	.	(16dd\LL	(16ff#\LL	.
16G\LL	.	16a\JJ)	16cc#X\JJ)	.
16F#\	.	8a/	8dd\	.
16D\JJ	.	.	.	.
=13	=13	=13	=13	=13
*	*	*	*Xtuplet	*
!	!	!	!LO:TX:a:t=P:problem=klamra łukowa, kreska zamiast numeru&colon;global	!
8G\L	.	4.aa\	24a\LL	.
.	.	.	24cc#X\	.
.	.	.	24ee\JJ	.
8F#\	.	.	24a\LL	.
.	.	.	24dd\	.
.	.	.	24ff#\JJ	.
8C#X\J	.	.	24a\LL	.
.	.	.	24ee\	.
.	.	.	24gg\JJ	.
=14	=14	=14	=14	=14
8D\	.	8a/	16ff#`\LL	.
.	.	.	(32aa\L	.
.	.	.	32gg\JJJ)	.
8r	.	8r	16ff#`\LL	.
.	.	.	(32aa\L	.
.	.	.	32gg\JJJ)	.
.	.	.	8qgg/	.
8r	.	8r	16ff#\LL	.
.	.	.	32ee\L	.
.	.	.	32dd\JJJ	.
!	!	!	!LO:LB:g=original	!
=15	=15	=15	=15	=15
8G\L	.	4.aa\	24a\LL	.
.	.	.	24cc#X\	.
.	.	.	24ee\JJ	.
8F#\	.	.	24a\LL	.
.	.	.	24dd\	.
.	.	.	24ff#\JJ	.
8C#X\J	.	.	24a\LL	.
.	.	.	24ee\	.
.	.	.	24gg\JJ	.
!	!	!LO:LB:g=original	!	!
=16	=16	=16	=16	=16
8D\	.	8a/	16ff#`\LL	.
.	.	.	(32aa\L	.
.	.	.	32gg\JJJ)	.
8r	.	8r	16ff#`\LL	.
.	.	.	(32aa\L	.
.	.	.	32gg\JJJ)	.
!	!	!LO:TUP:a	!	!
8r	.	(24dd\LL	24ff#\LL	.
.	.	24ff#\	24aa\	.
.	.	24aa\JJ)	24ddd\JJ	.
=17	=17	=17	=17	=17
*	*	*Xtuplet	*	*
!LO:TX:a:t=P:problem=mixed beam	!	!LO:TX:a:t=P:global:problem=klamra łukowa, kreska zamiast numeru	!	!
.	.	8qaa/	8qccc/	.
8G\L	.	24gg\LL	24bb\LL	.
.	.	24ff#\	24aa\	.
.	.	24ee\JJ	24gg\JJ	.
8A\	.	8dd\L	8ff#\L	.
8AA/J	.	8cc#X\J	8ee\J	.
=18	=18	=18	=18	=18
!LO:TX:a:t=P:problem=mixed beam	!	!	!	!
8D\L	.	4dd\	4dd\	.
8DD/J	.	.	.	.
!	!	!	!	!LO:DY:t=Po&colon;
!	!	!	!LO:TX:a:t=P:problem=chorągiewki 8\left&colon; global	!LO:DY:a
8r	.	8ffn\	8aa\	p
=19	=19	=19	=19	=19
!LO:TX:a:t=1.	!	!LO:SIC:s=8ffn	!	!
4.r	.	(8ff#\L	(8aa\L	.
.	.	8ee\	8gg\	.
.	.	8dd\J)	8ffn\J)	.
!LO:LB:g=original	!	!	!	!
=20	=20	=20	=20	=20
!	!	!	!LO:SIC:s=8ffn	!
8r	.	(8dd\L	(8ff#\L	.
8r	.	8cc#X\J)	8ee\J)	.
!	!	!	!LO:SIC:s=8ff	!
8d\	.	8a`/	8ff#`\	.
=21	=21	=21	=21	=21
8D\L	.	(8a/L	(8ffn\L	.
8G\	.	8g/	8ee\	.
!	!	!LO:SIC:s=8fn	!	!
8G#X\J	.	8f#/J)	8dd\J)	.
=22	=22	=22	=22	=22
!LO:TX:a:t=P:problem=mixed beam	!	!	!	!
.	.	8qqf#/	8qqdd/	.
8A\L	.	4e/	4cc#X\	.
8AA/J	.	.	.	.
8r	.	8ffn\	8aa\	.
=23	=23	=23	=23	=23
!LO:TX:a:t=1.	!	!LO:SIC:s=8ffn	!	!
4.r	.	(8ff#\L	(8aa\L	.
.	.	8ee\	8gg\	.
.	.	8dd\J)	8ffn\J)	.
=24	=24	=24	=24	=24
8r	.	(8dd\L	(8ffn\L	.
8r	.	8cc#X\)	8ee\	.
8d\	.	8dd`\J	8ff\J)	.
=25	=25	=25	=25	=25
!	!	!	!LO:SIC:s=8ffn	!
4.B-X\	.	4.dd\	(8ff#\L	.
.	.	.	8dd\	.
.	.	.	8gg#X\J)	.
!	!	!	!LO:LB:g=original	!
=26	=26	=26	=26	=26
4A\	.	8.cc#X\L	4aa\	.
.	.	32ee\LL	.	.
.	.	32dd\JJJ	.	.
8r	.	16cc#t\LL	8a/	.
.	.	32b\L	.	.
.	.	32cc#\JJJ	.	.
!	!	!LO:LB:g=original	!	!
=27	=27	=27	=27	=27
!LO:N:vis=4.	!	!	!	!
!	!LO:DY:t=f&colon;	!	!	!
!	!LO:DY:a	!	!	!
4Bn\	f	[4.dd\	(8.ggn\L	.
.	.	.	32bb\LL	.
.	.	.	32gg\JJJ)	.
8A\	.	.	(16ff#X\LL	.
.	.	.	32aa\L	.
.	.	.	32ff#\JJJ)	.
=28	=28	=28	=28	=28
4G\	.	4.dd\_	(8.ee\L	.
.	.	.	32gg\LL	.
.	.	.	32ee\JJJ)	.
8F#\	.	.	16.dd\LL	.
.	.	.	32aa\JJk	.
=29	=29	=29	=29	=29
16Bn\LL	.	4.dd\_	8gg\	.
16B\	.	.	.	.
16B\	.	.	(32gg\LLL	.
.	.	.	32aa\	.
16B\	.	.	32bb\	.
.	.	.	32gg\JJJ)	.
16A\	.	.	(32ff#\LLL	.
.	.	.	32gg\	.
16A\JJ	.	.	32aa\	.
.	.	.	32ff#\JJJ)	.
=30	=30	=30	=30	=30
16G\LL	.	4dd\]	8ee\	.
16G\	.	.	.	.
16G\	.	.	(32ee\LLL	.
.	.	.	32ff#\	.
16G\	.	.	32gg\	.
.	.	.	32ee\JJJ)	.
16F#\	.	16.dd\LL	(32dd\LLL	.
.	.	.	32ff#\	.
16F#\JJ	.	.	32aa\	.
.	.	32aa\JJk	32ddd\JJJ)	.
!LO:LB:g=original	!	!	!	!
=31	=31	=31	=31	=31
!LO:TX:a:t=P:problem=mixed beam	!	!LO:TX:a:t=P:problem=brak klamry	!	!
.	.	8qaa/	8qccc/	.
16G\LL	.	24gg\LL	24bb\LL	.
.	.	24ff#\	24aa\	.
16G\	.	.	.	.
.	.	24ee\JJ	24gg\JJ	.
16A\	.	8dd\L	8ff#\L	.
16A\	.	.	.	.
16AA/	.	8cc#X\J	8ee\J	.
16AA/JJ	.	.	.	.
=32	=32	=32	=32	=32
!LO:TX:a:t=P:problem=mixed beam	!	!	!	!
8D\L	.	4dd\	4dd\	.
8DD/J	.	.	.	.
8r	.	8r	8r	.
=33:|!|:	=33:|!|:	=33:|!|:	=33:|!|:	=33:|!|:
*>B	*	*>B	*>B	*
!	!	!	!LO:TX:a:t=1.	!
8r	.	[4.dd\	4.r	.
8r	.	.	.	.
8B-X\	.	.	.	.
=34	=34	=34	=34	=34
8c\L	.	8dd\]	4.ee-X\	.
8A\	.	[4cc\	.	.
8Fn\J	.	.	.	.
=35	=35	=35	=35	=35
8B-X\L	.	8cc\]	4.dd\	.
8G\	.	[4b-X\	.	.
8E-X\J	.	.	.	.
!	!	!	!LO:LB:g=original	!
=36	=36	=36	=36	=36
8A\L	.	8b-\]	4.cc\	.
8F#X\	.	4a/	.	.
8D\J	.	.	.	.
=37	=37	=37	=37	=37
8G\	.	16g`/LL	16b-X\LL	.
.	.	.	8qaa/	.
.	.	(32b-X/L	(32gg\L	.
.	.	32a/JJJ)	32ff#\JJJ)	.
16r	.	8b-/	8gg`\	.
16B-X\LL	.	.	.	.
16B-\	.	8r	8r	.
16A\JJ	.	.	.	.
=38	=38	=38	=38	=38
8G\	.	16r	16r	.
.	.	8qcc/	8qaa/	.
.	.	(32b-X/LLL	(32gg\LLL	.
.	.	32a/JJJ)	32ff#X\JJJ)	.
16r	.	8b-/	8gg\	.
16G\LL	.	.	.	.
16G\	.	8r	8r	.
16Fn\JJ	.	.	.	.
!	!	!LO:LB:g=original	!	!
=39	=39	=39	=39	=39
8E-X\	.	16r	16r	.
.	.	8qcc/	8qaa/	.
.	.	(32b-X/LLL	(32gg\LLL	.
.	.	32a/JJJ)	32ff#X\JJJ)	.
16r	.	8b-/	8gg`\	.
!LO:LB:g=original	!	!	!	!
16E-X\LL	.	.	.	.
16E-\	.	8r	8r	.
16D\JJ	.	.	.	.
=40	=40	=40	=40	=40
4.C#X/	.	16r	16r	.
.	.	(8gg\L	8bb-X\L	.
.	.	8gg\	8bb-\	.
.	.	16b-X\Jk)	(32aa\LL	.
.	.	.	32gg\JJJ)	.
=41	=41	=41	=41	=41
4.D/	.	8a/	8ff#\	.
.	.	8r	24ff#\LL	.
.	.	.	24gg\	.
.	.	.	24aa\JJ	.
.	.	8r	24ff#\LL	.
.	.	.	24gg\	.
.	.	.	24aa\JJ	.
=42	=42	=42	=42	=42
4.E-X\	.	4.cc#X\	16r	.
.	.	.	8bb-X\L	.
.	.	.	8bb-\	.
.	.	.	(32aa\LL	.
.	.	.	32gg\JJJ)	.
=43	=43	=43	=43	=43
.	.	.	8qqgg/	.
4D\	.	4dd;\	4ff#X;\	.
8r;	.	8r	8r	.
=44	=44	=44	=44	=44
8G\L	.	(16b`/LL	16dd`\LL	.
.	.	32g/L	(32b\L	.
.	.	32a/JJJ)	32cc\JJJ)	.
8Bn\	.	16b`/LL	16dd'\LL	.
.	.	16b`/	16dd'\	.
8d\J	.	16b`/	16dd'\	.
.	.	16b`/JJ	16dd'\JJ	.
!	!	!	!LO:LB:g=original	!
=45	=45	=45	=45	=45
8G\	.	16b\LL	16dd\LL	.
.	.	(32b\L	32gg\L	.
.	.	32cc\JJJ)	32aa\JJJ	.
.	.	8qee/	8qccc/	.
8r	.	16dd\LL	16bb\LL	.
.	.	32cc\L	32aa\L	.
.	.	32b\JJJ	32gg\JJJ	.
.	.	8qee/	8qgg/	.
8r	.	16dd\LL	16ff#\LL	.
.	.	32cc\L	32ee\L	.
.	.	32b\JJJ	32dd\JJJ	.
=46	=46	=46	=46	=46
8D\L	.	16a`/LL	16cc`\LL	.
.	.	(32f#/L	(32a\L	.
.	.	32g/JJJ)	32b\JJJ)	.
8F#\	.	16a`/LL	16cc'\LL	.
.	.	16a`/	16cc'\	.
8A\J	.	16a`/	16cc'\	.
.	.	16a`/JJ	16cc'\JJ	.
!	!	!LO:LB:g=original	!	!
=47	=47	=47	=47	=47
8D\	.	16a`/LL	16cc\LL	.
.	.	(32a/L	32ff#\L	.
.	.	32b/JJJ)	32gg\JJJ	.
.	.	8qdd/	8qbb/	.
8r	.	16cc\LL	16aa\LL	.
.	.	32b\L	32gg\L	.
.	.	32a\JJJ	32ff#\JJJ	.
.	.	8qdd/	8qff#/	.
8r	.	16cc\LL	16ee\LL	.
.	.	32b\L	32dd\L	.
.	.	32a\JJJ	32cc\JJJ	.
=48	=48	=48	=48	=48
4G\	.	8g/	(32b\LLL	.
.	.	.	32gg\	.
.	.	.	32ff#\	.
.	.	.	32gg\JJJ)	.
.	.	8r	(32aa\LLL	.
.	.	.	32gg\	.
.	.	.	32ff#\	.
.	.	.	32gg\JJJ)	.
8BB/	.	8r	(32gg\LLL	.
.	.	.	32ffn\	.
.	.	.	32ee\	.
.	.	.	32ff\JJJ)	.
=49	=49	=49	=49	=49
4.C/	.	32r	8ee\	.
.	.	(32cc\LLL	.	.
.	.	32b\	.	.
.	.	32cc\JJJ)	.	.
.	.	(32dd\LLL	8r	.
.	.	32cc\	.	.
.	.	32b\)	.	.
.	.	32cc\JJJ	.	.
.	.	32cc\LLL	8r	.
.	.	(32b-X\	.	.
.	.	32a\	.	.
.	.	32b-\JJJ)	.	.
=50	=50	=50	=50	=50
4.C#X/	.	8a/	32r	.
.	.	.	32aa`\LLL	.
.	.	.	(32gg#X\	.
.	.	.	32aa\JJJ)	.
.	.	8r	(32bb\LLL	.
.	.	.	32aa\	.
.	.	.	32gg#X\	.
.	.	.	32aa\JJJ)	.
.	.	8r	(32aa\LLL	.
.	.	.	32ggn\	.
.	.	.	32ff#\	.
.	.	.	32gg\JJJ)	.
=51	=51	=51	=51	=51
!LO:TX:a:t=P:problem=mixed beam	!	!	!	!
.	.	8qbn/	8qgg/	.
8D/L	.	16a/LL	16ff#X\LL	.
.	.	32g/L	32ee\L	.
.	.	32f#/JJJ	32dd\JJJ	.
8d\	.	8f#/	8dd\	.
8B\J	.	8r	16r	.
!	!	!	!LO:TX:a:t=P:problem=chorągiewki 16\left	!
!	!	!	!LO:LB:g=original	!
.	.	.	16dd\	.
!LO:LB:g=original	!	!	!	!
=52	=52	=52	=52	=52
8c\L	.	4.dd\	24d/LL	.
.	.	.	24f#/	.
.	.	.	24a/JJ	.
8A\	.	.	24d/LL	.
.	.	.	24g/	.
.	.	.	24b/JJ	.
8F#\J	.	.	24d/LL	.
.	.	.	24a/	.
.	.	.	24cc/JJ	.
=53	=53	=53	=53	=53
8G\	.	8d/	16b`\LL	.
.	.	.	(32dd\L	.
.	.	.	32cc\JJJ)	.
8r	.	8r	16b`\LL	.
.	.	.	(32dd\L	.
.	.	.	32cc\JJJ)	.
.	.	.	8qcc/	.
8r	.	8r	16b/LL	.
.	.	.	32a/L	.
.	.	.	32g/JJJ	.
=54	=54	=54	=54	=54
8c\L	.	4.dd\	24d/LL	.
.	.	.	24f#/	.
.	.	.	24a/JJ	.
8A\	.	.	24d/LL	.
.	.	.	24g/	.
.	.	.	24b/JJ	.
8F#\J	.	.	24d/LL	.
.	.	.	24a/	.
.	.	.	24cc/JJ	.
!	!	!LO:LB:g=original	!	!
=55	=55	=55	=55	=55
8G\	.	8d/	16b`\LL	.
.	.	.	(32dd\L	.
.	.	.	32cc\JJJ)	.
8r	.	8r	16b`\LL	.
.	.	.	(32dd\L	.
.	.	.	32cc\JJJ)	.
8r	.	24g/LL	24b\LL	.
.	.	24b/	24dd\	.
.	.	24dd/JJ	24gg\JJ	.
=56	=56	=56	=56	=56
!LO:TX:a:t=P:problem=mixed beam	!	!	!	!
.	.	8qdd/	8qff#/	.
8c\L	.	16cc\LL	16ee\LL	.
.	.	32b\L	32dd\L	.
.	.	32a\JJJ	32cc\JJJ	.
8d\	.	8g/L	8b/L	.
8D/J	.	8f#/J	8a/J	.
=57	=57	=57	=57	=57
!LO:TX:a:t=P:problem=mixed beam	!	!	!	!
8G\L	.	4g/	4g/	.
8GG/J	.	.	.	.
!	!	!	!	!LO:DY:a
8r	.	8b-X/	8dd\	p
=58	=58	=58	=58	=58
!LO:TX:a:t=1.	!	!LO:SIC:s=8b-	!	!
4.r	.	(8b/L	(8dd\L	.
.	.	8a/	8cc\	.
.	.	8g/J)	8b-X\J)	.
=59	=59	=59	=59	=59
!	!	!	!LO:SIC:s=8b-	!
8r	.	(8g/L	(8b/L	.
8r	.	8f#X/J)	8a/J)	.
8G\	.	8dd`\	8bb-X`\	.
!	!	!	!LO:LB:g=original	!
=60	=60	=60	=60	=60
8GG/L	.	(8dd\L	(8bb-X\L	.
8C/	.	8cc\	8aa\	.
8C#X/J	.	8b-X\J)	8gg\J)	.
=61	=61	=61	=61	=61
!LO:TX:a:t=P:problem=mixed beam	!	!LO:SIC:s=8b-&colon;t=dotyczy przednutki	!	!
.	.	8qb/	8qqgg/	.
8D/L	.	4a/	4ff#X\	.
8DD/J	.	.	.	.
8r	.	8b-X\	8dd\	.
=62	=62	=62	=62	=62
!LO:TX:a:t=1.	!	!LO:SIC:s=8b-	!	!
4.r	.	(8b/L	8dd`\L	.
.	.	8a/	(8cc\	.
.	.	8g/J)	8b-X\J)	.
!	!	!LO:LB:g=original	!	!
=63	=63	=63	=63	=63
!	!	!	!LO:SIC:s=8b-	!
8r	.	(8g/L	(8b/L	.
8r	.	8f#X/J)	8a/J)	.
8G\	.	8g/	8bb-X\	.
=64	=64	=64	=64	=64
!	!	!	!LO:SIC:s=8bb-	!
4.E-X\	.	4.g/	8bb\L	.
.	.	.	(8gg\	.
.	.	.	8cc#X\J)	.
!LO:LB:g=original	!	!	!	!
=65	=65	=65	=65	=65
!LO:TX:a:t=P:problem=mixed beam	!	!	!	!
8D\L	.	8.f#X/L	4dd\	.
8DD/J	.	.	.	.
.	.	32a/LL	.	.
.	.	32g/JJJ	.	.
8r	.	16f#/LL	8dd\	.
.	.	32e/L	.	.
.	.	32f#/JJJ	.	.
=66	=66	=66	=66	=66
4En\	.	[4.g/	8.cc\L	.
.	.	.	(32een\LL	.
.	.	.	32cc\JJJ)	.
8D\	.	.	16b\LL	.
.	.	.	(32dd\L	.
.	.	.	32b\JJJ)	.
=67	=67	=67	=67	=67
4C/	.	4.g/_	8.a\L	.
.	.	.	(32cc\LL	.
.	.	.	32a\JJJ)	.
8BB/	.	.	16.g\LL	.
.	.	.	32dd\JJk	.
=68	=68	=68	=68	=68
16E\LL	.	4.g/_	[8cc\	.
16E\	.	.	.	.
16E\	.	.	(32cc\LLL]	.
.	.	.	32dd\	.
16E\	.	.	32ee\	.
.	.	.	32cc\JJJ)	.
16D\	.	.	(32b\LLL	.
.	.	.	32cc\	.
16D\JJ	.	.	32dd\	.
.	.	.	32b\JJJ)	.
=69	=69	=69	=69	=69
16C/LL	.	4g/_	8a/	.
16C/	.	.	.	.
16C/	.	.	(32a/LLL	.
.	.	.	32b/	.
16C/	.	.	32cc/	.
.	.	.	32a/JJJ)	.
16BB/	.	16.g/LL]	32g\LLL	.
.	.	.	(32b\	.
16BB/JJ	.	.	32dd\	.
.	.	32dd/JJk	32gg\JJJ)	.
=70	=70	=70	=70	=70
.	.	8qdd/	8qff#/	.
8C/L	.	16cc\LL	16ee\LL	.
.	.	32b\L	32dd\L	.
.	.	32a\JJJ	32cc\JJJ	.
8D/	.	8g\L	8b/L	.
8DD/J	.	8f#\J	8a/J	.
=71	=71	=71	=71	=71
!LO:TX:a:t=P:problem=mixed beam	!	!	!	!
8G\L	.	4g/	4g/	.
8GG/J	.	.	.	.
!LO:TX:a:t=P:problem=obustronna repetycja	!	!LO:TX:a:t=P:problem=obustronna repetycja	!LO:TX:a:t=P:problem=obustronna repetycja	!
8r	.	8r	8r	.
=:|!;;	=:|!	=:|!;;	=:|!;;	=:|!
*-	*-	*-	*-	*-
!!!system-decoration: [(g1)]g2
!!!RDFdynam: p= Po&colon;
!!!ENC: Anna Matuszewska
!!!END: 202010-28
!!!ENC: Andrzej Borzym
!!!END: 2020-06-04
